X: 19893
T: Jig For Grace
R: jig
M: 6/8
K: Gmajor
|:GBD G3|AGF GAB|dBe dBA|B2A GED|
GBD G3|AGF GAB|dBe dBA|AGF G3:|
|:dBe dBA|GAB GED|dBe dBA|Bcd e3|
dBe dBA|GAB GED|GFE DBA|GBd e3:|

